X: 25
T:Billy in the Low Land
R:Reel
M:4/4
L:1/8
N:Transcribed by Bruce Thomson
K:G
|z6D2|:G3AG2A2|B2ded2B2|d2edBAG2|AGE2E2D2|
G3AG2A2|B2d2g2bg|agefgage|[1dBAFG2D2:|][2dBAFG2ef|]
|:gabag2d2|egedBd3|e3dBAG2|AGE2E2ef|gabag2d2|
egedBd3|e3fgage|[1dBAFG2ef:|][2dBAFG4|]

